assets/simpleicons/mono.svg

<svg viewBox="0 0 24 24" xmlns="http://www.w3.org/2000/svg"><path d="m18 6a6 6 0 1 0 -6 6 6 6 0 0 1 5.35 9h1.5a7.5 7.5 0 0 0 -6.85-10.5 4.5 4.5 0 1 1 4.5-4.5zm-6-3a3 3 0 0 0 0 6 1 1 0 0 0 0-6m0 1.5a1.5 1.5 0 0 1 0 3 1 1 0 0 1 0-3m-4.5 10.5v1.5h1.5v6h-4.5v1.5h15v-1.5h-4.5v-6h1.5v-1.5zm3 1.5h3v6h-3zm-6 1.5a7.5 7.5 0 0 0 .7 3h1.5a6 6 0 0 1 -.7-3z"/></svg>

<svg xmlns="http://www.w3.org/2000/svg" viewBox="0 0 24 24"><path d="M18 6a6 6 0 1 0-6 6 6 6 0 0 1 5.35 9h1.5A7.5 7.5 0 0 0 12 10.5 4.5 4.5 0 1 1 16.5 6zm-6-3a3 3 0 0 0 0 6 1 1 0 0 0 0-6m0 1.5a1.5 1.5 0 0 1 0 3 1 1 0 0 1 0-3M7.5 15v1.5H9v6H4.5V24h15v-1.5H15v-6h1.5V15zm3 1.5h3v6h-3zm-6 1.5a7.5 7.5 0 0 0 .7 3h1.5a6 6 0 0 1-.7-3z"/></svg>
